src/basic/800/u275E-quote.svg

<svg width="17" height="16" viewBox="0 0 17 16" fill="none" xmlns="http://www.w3.org/2000/svg">
<path fill-rule="evenodd" clip-rule="evenodd" d="M4,3c-1.65685,0 -3,1.34315 -3,3c0,1.65685 1.34315,3 3,3v1c-2.20914,0 -4,-1.79086 -4,-4c0,-2.20914 1.79086,-4 4,-4c2.20914,0 4,1.79086 4,4v4.5c0,1.933 -1.567,3.5 -3.5,3.5h-0.5h-3v-1h3h0.5c1.38071,0 2.5,-1.1193 2.5,-2.5v-4.5c0,-1.65685 -1.34315,-3 -3,-3z" fill="black"/>
<path fill-rule="evenodd" clip-rule="evenodd" d="M13,3c-1.6569,0 -3,1.34315 -3,3c0,1.65685 1.3431,3 3,3v1c-2.2091,0 -4,-1.79086 -4,-4c0,-2.20914 1.7909,-4 4,-4c2.2091,0 4,1.79086 4,4v4.5c0,1.933 -1.567,3.5 -3.5,3.5h-0.5h-3v-1h3h0.5c1.3807,0 2.5,-1.1193 2.5,-2.5v-4.5c0,-1.65685 -1.3431,-3 -3,-3z" fill="black"/>
</svg>

<svg width="17" height="16" viewBox="0 0 17 16" fill="none" xmlns="http://www.w3.org/2000/svg">
<path fill-rule="evenodd" clip-rule="evenodd" d="M4 3C2.34315 3 1 4.34315 1 6C1 7.65685 2.34315 9 4 9V10C1.79086 10 0 8.20914 0 6C0 3.79086 1.79086 2 4 2C6.20914 2 8 3.79086 8 6L8 10.5C8 12.433 6.433 14 4.5 14H4H1V13H4H4.5C5.88071 13 7 11.8807 7 10.5L7 6C7 4.34315 5.65685 3 4 3Z" fill="black"/>
<path fill-rule="evenodd" clip-rule="evenodd" d="M13 3C11.3431 3 10 4.34315 10 6C10 7.65685 11.3431 9 13 9V10C10.7909 10 9 8.20914 9 6C9 3.79086 10.7909 2 13 2C15.2091 2 17 3.79086 17 6L17 10.5C17 12.433 15.433 14 13.5 14H13H10V13H13H13.5C14.8807 13 16 11.8807 16 10.5L16 6C16 4.34315 14.6569 3 13 3Z" fill="black"/>
</svg>
